X: 33946
T: Redesdale
R: hornpipe
M: 4/4
K: Gmajor
(3def|:gdBd G2(3def|gdBd G2AB|cAFA DFAc|ed^cd B2(3def|
gdBd G2(3def|gdBd G2AB|cAFA DFAc|1 B2G2 G2(3def:|2 B2G2 G2GA||
|:BGFG DGFG|BGFG D2AB|cAFA DFAc|ed^cd B2GA|
BGFG DGFG|BGFG D2AB|cAFA DFAc|1 B2G2 G2GA:|2 B2G2 G2z2||

